X:28
T: Reels 8 - Dark Girl Dressed in Blue
T: Jack Robinson
M: 2/2
L: 1/8
K: G Major
"G"D2 G2 D2 BB | "C"c2 c2 A4 | "D"FG A2 FG A2 | "G"GBd^c "G/B"d3 d | "C"edce "G/B"d2 B2 |
"Am"cBAB "C"A2 G2 | "D"D2 G2 FGAB |1 "D"A2 G2 "C"G2 E2 :|2 "D"A2 G2 "G"G2 Bc ||
"G"d2 B2 "C"cd e2 | "Am"e2 A2 "D"A2 Bc | "G"d2 B2 "C"cd e2 | "Am"edcB "D"AcBA | "G"GABc d2 B2 |
"C"cBAB A2 G2 | "D"D2 G2 FGAB |1 A2 G2 "C"G2 Bc :|2 "D"A2 G2 "G"G3 E ||
T:Dark Girl Dressed in Blue
K:D
"D"A3G F3G|"D"AB"Am"=cA "G"B2G2|"D"A3G F3G|A2dc "G"d2B2|
"D"A3G F3G|"D"AB"Am"=cA "G"B2G2|"A"A2d2 cdec|1"G"d2f2 d4:|2"D"d2f2 d2e2||
"D"f2d2 "G"g2fe|"D"d3B "A"A4|"D"f2d2 "G"gfe2|"D"d6 e2|
"D"f2d2 "G"g2fe|"D"d3B "Bm"A2B2|"C"=c4 B2A2|"G"G2A2 "C"=c2B2:|]
%%newpage

